public/images/farms/btcst-bnb.svg

<svg width="160" height="160" viewBox="0 0 160 160" fill="none" xmlns="http://www.w3.org/2000/svg">
<g clip-path="url(#clip0)">
<path d="M48.045 119.028C44.8667 131.172 63.0449 146.449 88.6472 153.149C114.25 159.849 137.581 155.436 140.759 143.291C143.937 131.146 125.759 115.87 100.157 109.169C74.5546 102.469 51.2233 106.883 48.045 119.028Z" fill="#606063"/>
<path d="M136.924 149.273L152.346 132.988L42.9922 104.369L48.7128 126.187L136.924 149.273Z" fill="#606063"/>
<path d="M49.9337 108.293L8.07245 97.338C6.25796 96.8632 4.41259 97.9924 4.00962 99.8242L3.54142 101.953C2.60839 106.194 5.11954 110.433 9.28748 111.653L51.0994 123.892L49.9337 108.293Z" fill="#606063"/>
<path d="M43.2026 98.7096C39.5089 112.824 61.5267 130.811 92.3808 138.886C123.235 146.96 151.241 142.064 154.935 127.95C158.629 113.836 136.611 95.8488 105.757 87.7742C74.9028 79.6996 46.8963 84.5955 43.2026 98.7096Z" fill="url(#paint0_linear)"/>
<path fill-rule="evenodd" clip-rule="evenodd" d="M127.673 123.286C134.771 128.506 138.919 134.152 139.538 139.157L142.516 138.789C141.744 132.551 136.779 126.258 129.45 120.869C122.061 115.434 112.011 110.721 100.537 107.718C89.0628 104.716 77.9927 103.901 68.888 105.019C59.8593 106.128 52.4479 109.182 48.7196 114.242L51.1348 116.021C54.1263 111.961 60.5082 109.071 69.2536 107.997C77.9231 106.933 88.6081 107.698 99.7773 110.621C110.946 113.544 120.636 118.111 127.673 123.286Z" fill="#606063"/>
<path fill-rule="evenodd" clip-rule="evenodd" d="M56.7343 118.739C48.0136 111.615 44.7365 104.698 46.1049 99.4692C47.4733 94.2403 53.7186 89.8155 64.8112 87.8763C75.6178 85.9872 89.8893 86.7226 104.997 90.6764C120.105 94.6302 132.908 100.98 141.403 107.921C150.124 115.045 153.401 121.962 152.033 127.191C150.664 132.42 144.419 136.844 133.326 138.784C122.52 140.673 108.248 139.937 93.1403 135.984C78.0323 132.03 65.2301 125.68 56.7343 118.739ZM92.3808 138.886C61.5267 130.811 39.5089 112.824 43.2026 98.7096C46.8963 84.5955 74.9028 79.6996 105.757 87.7742C136.611 95.8488 158.629 113.836 154.935 127.95C151.241 142.064 123.235 146.96 92.3808 138.886Z" fill="#979797"/>
<path fill-rule="evenodd" clip-rule="evenodd" d="M45.1673 124.049L40.2305 104.926L43.1352 104.176L48.0721 123.299L45.1673 124.049Z" fill="url(#paint1_linear)"/>
<path fill-rule="evenodd" clip-rule="evenodd" d="M43.4691 106.189C43.4241 106.041 43.3812 105.893 43.3406 105.746C43.2656 105.473 43.1983 105.2 43.1386 104.929L42.997 104.389C42.9948 104.38 43.0025 104.372 43.0109 104.375C43.019 104.377 43.0266 104.37 43.0251 104.362C43.0236 104.353 43.0222 104.345 43.0207 104.337C42.9732 104.072 42.9333 103.807 42.9009 103.543C42.8931 103.479 42.8857 103.416 42.8788 103.352C42.8065 102.689 42.7824 102.031 42.8078 101.378C42.8079 101.378 42.8079 101.378 42.8079 101.377C42.8432 100.475 42.9734 99.5849 43.2025 98.7095C46.8962 84.5954 74.9027 79.6994 105.757 87.774C136.611 95.8486 158.629 113.836 154.935 127.95C154.706 128.826 154.383 129.666 153.972 130.469C153.972 130.469 153.972 130.47 153.972 130.47C153.528 131.338 152.981 132.163 152.337 132.945C152.332 132.951 152.326 132.958 152.321 132.964C152.319 132.967 152.318 132.969 152.318 132.972C152.318 132.977 152.322 132.982 152.327 132.983C152.332 132.984 152.335 132.989 152.336 132.993C152.336 132.996 152.335 133 152.333 133.002L151.725 133.644C151.655 133.72 151.584 133.795 151.511 133.87L150.275 135.175L150.273 135.177L138.793 147.299C131.986 156.33 111.197 159.051 88.6472 153.149C66.3446 147.312 49.6757 134.967 47.8505 123.854C47.7571 123.285 47.3667 122.8 46.8135 122.639L10.1271 111.91C5.98342 110.698 3.4722 106.499 4.36483 102.275L4.82393 100.103C5.21371 98.2581 7.06553 97.1133 8.88976 97.589L43.1386 106.52C43.3391 106.573 43.5217 106.39 43.4691 106.189ZM39.8119 102.553C39.7482 101.009 39.9029 99.4681 40.3002 97.9499C42.6255 89.0648 52.2303 83.9845 63.7779 81.9658C75.6114 79.8971 90.7702 80.751 106.516 84.8718C122.262 88.9926 135.896 95.6738 145.199 103.274C154.277 110.691 160.162 119.825 157.837 128.71C157.28 130.839 156.285 132.774 154.936 134.499C154.821 134.697 154.679 134.887 154.511 135.065L153.923 135.686C153.92 135.689 153.916 135.693 153.913 135.697C153.836 135.779 153.759 135.861 153.68 135.943C153.677 135.946 153.673 135.95 153.67 135.953L141.082 149.246C136.911 154.652 129.056 157.706 119.984 158.802C110.684 159.926 99.4667 159.082 87.8877 156.051C76.4351 153.054 66.3397 148.366 58.8095 142.91C51.73 137.78 46.4882 131.648 45.0667 125.253L9.28503 114.789C3.63618 113.137 0.212785 107.413 1.42965 101.655L1.88875 99.4823C2.63251 95.9628 6.16596 93.7783 9.64679 94.6861L39.8119 102.553Z" fill="url(#paint2_linear)"/>
<circle cx="57" cy="29" r="29" fill="#F0B90B"/>
<path d="M46.1846 28.9998L41.7476 33.4676L37.2798 28.9998L41.7476 24.532L46.1846 28.9998ZM56.9998 18.1846L64.6413 25.8261L69.1091 21.3583L61.4676 13.7476L56.9998 9.27979L52.532 13.7476L44.9213 21.3583L49.3891 25.8261L56.9998 18.1846ZM72.252 24.532L67.815 28.9998L72.2828 33.4676L76.7198 28.9998L72.252 24.532ZM56.9998 39.815L49.3583 32.1735L44.9213 36.6413L52.5628 44.2828L56.9998 48.7198L61.4676 44.252L69.1091 36.6105L64.6413 32.1735L56.9998 39.815ZM56.9998 33.4676L61.4676 28.9998L56.9998 24.532L52.532 28.9998L56.9998 33.4676Z" fill="#FFFDFA"/>
<g style="mix-blend-mode:multiply" opacity="0.1">
<path fill-rule="evenodd" clip-rule="evenodd" d="M57 55C71.3594 55 83 43.3594 83 29C83 14.6406 71.3594 3 57 3C42.6406 3 31 14.6406 31 29C31 43.3594 42.6406 55 57 55ZM57 58C73.0163 58 86 45.0163 86 29C86 12.9837 73.0163 0 57 0C40.9837 0 28 12.9837 28 29C28 45.0163 40.9837 58 57 58Z" fill="#191326"/>
</g>
<g clip-path="url(#clip1)">
<path d="M106.633 115.619C130.447 115.619 149.752 96.3142 149.752 72.5001C149.752 48.686 130.447 29.3809 106.633 29.3809C82.8191 29.3809 63.5139 48.686 63.5139 72.5001C63.5139 96.3142 82.8191 115.619 106.633 115.619Z" fill="black"/>
<path d="M106.633 116C82.6462 116 63.1331 96.4869 63.1331 72.5C63.1331 48.5131 82.6462 29 106.633 29C130.62 29 150.133 48.5131 150.133 72.5C150.133 96.4869 130.62 116 106.633 116ZM106.633 29.7139C83.0269 29.7139 63.847 48.8939 63.847 72.5C63.847 96.1061 83.0269 115.286 106.633 115.286C130.239 115.286 149.419 96.1061 149.419 72.5C149.419 48.8939 130.239 29.7139 106.633 29.7139Z" fill="white"/>
<path d="M93.8782 86.9207H114.819C120.054 86.9207 124.338 82.6374 124.338 77.4021C124.338 72.1669 120.054 67.8835 114.819 67.8835H114.724H98.4471C95.4487 67.8835 92.8311 66.313 91.4033 63.9333C91.9268 63.0766 92.5931 62.3627 93.4022 61.744C94.8776 60.6018 96.6385 60.0307 98.4947 60.0307H119.436C122.196 60.0307 124.385 57.7938 124.385 55.081C124.385 52.3682 122.148 50.1313 119.436 50.1313H98.4947C93.2594 50.1313 88.9761 54.4147 88.9761 59.6499C88.9761 64.8852 93.2594 69.1685 98.4947 69.1685H114.771H114.867C119.436 69.1685 123.148 72.8808 123.148 77.4497C123.148 78.5444 122.91 79.5914 122.529 80.5909C120.721 78.116 117.913 76.6882 114.819 76.6882H114.724H98.4471C93.8782 76.6882 90.1659 72.976 90.1659 68.4071H88.9761C88.9761 73.6423 93.2594 77.9257 98.4947 77.9257H114.771H114.867C117.77 77.9257 120.387 79.401 121.91 81.8759C120.435 84.2555 117.817 85.8261 114.867 85.8261H93.9257C91.1654 85.8261 88.9761 88.063 88.9761 90.7758C88.9761 93.5362 91.2129 95.7254 93.9257 95.7254H114.867C120.102 95.7254 124.385 91.4421 124.385 86.2068H123.195C123.195 90.7758 119.483 94.488 114.914 94.488H93.9733C91.8792 94.488 90.2135 92.8223 90.2135 90.7282C90.1183 88.5865 91.8317 86.9207 93.8782 86.9207ZM90.1183 59.6024C90.1183 55.0334 93.8306 51.3212 98.3995 51.3212H119.34C121.434 51.3212 123.1 52.9869 123.1 55.081C123.1 57.1751 121.434 58.8409 119.34 58.8409H98.3995C96.2578 58.8409 94.2589 59.5072 92.5931 60.8398C91.8792 61.4109 91.2605 62.0296 90.737 62.7911C90.3563 61.744 90.1183 60.697 90.1183 59.6024Z" fill="white"/>
</g>
<g style="mix-blend-mode:multiply" opacity="0.2">
<path fill-rule="evenodd" clip-rule="evenodd" d="M106.5 113.163C128.958 113.163 147.163 94.9576 147.163 72.5C147.163 50.0424 128.958 31.837 106.5 31.837C84.0424 31.837 65.837 50.0424 65.837 72.5C65.837 94.9576 84.0424 113.163 106.5 113.163ZM106.5 116C130.524 116 150 96.5244 150 72.5C150 48.4756 130.524 29 106.5 29C82.4756 29 63 48.4756 63 72.5C63 96.5244 82.4756 116 106.5 116Z" fill="#191326"/>
</g>
</g>
<defs>
<linearGradient id="paint0_linear" x1="105.757" y1="87.7742" x2="92.3808" y2="138.886" gradientUnits="userSpaceOnUse">
<stop stop-color="#404042"/>
<stop offset="1" stop-color="#48484B"/>
</linearGradient>
<linearGradient id="paint1_linear" x1="46.5673" y1="105.096" x2="41.7353" y2="123.129" gradientUnits="userSpaceOnUse">
<stop stop-color="#404042"/>
<stop offset="1" stop-color="#48484B"/>
</linearGradient>
<linearGradient id="paint2_linear" x1="73.4948" y1="80.1687" x2="89.0896" y2="164.62" gradientUnits="userSpaceOnUse">
<stop stop-color="#404042"/>
<stop offset="1" stop-color="#48484B"/>
</linearGradient>
<clipPath id="clip0">
<rect width="160" height="160" fill="white"/>
</clipPath>
<clipPath id="clip1">
<rect width="87" height="87" fill="white" transform="translate(63 29)"/>
</clipPath>
</defs>
</svg>

<svg xmlns="http://www.w3.org/2000/svg" width="160" height="160" fill="none"  xmlns:v="https://vecta.io/nano"><g clip-path="url(#D)"><g fill="#606063"><path d="M48.045 119.028c-3.178 12.144 15 27.421 40.602 34.121s48.934 2.287 52.112-9.858-15-27.421-40.602-34.122-48.934-2.286-52.112 9.859z"/><path d="M136.924 149.273l15.422-16.285-109.354-28.619 5.721 21.818 88.211 23.086z"/><path d="M49.934 108.293L8.072 97.338c-1.814-.475-3.66.654-4.063 2.486l-.468 2.129a8.26 8.26 0 0 0 5.746 9.7l41.812 12.239-1.166-15.599z"/></g><path d="M43.203 98.71c-3.694 14.114 18.324 32.101 49.178 40.176s58.86 3.178 62.554-10.936-18.324-32.101-49.178-40.176-58.861-3.179-62.554 10.935z" fill="url(#A)"/><g fill-rule="evenodd"><path d="M127.673 123.286c7.098 5.22 11.246 10.866 11.865 15.871l2.978-.368c-.772-6.238-5.737-12.531-13.066-17.92-7.389-5.435-17.439-10.148-28.913-13.151s-22.544-3.817-31.649-2.699c-9.029 1.109-16.44 4.163-20.168 9.223l2.415 1.779c2.992-4.06 9.373-6.95 18.119-8.024 8.67-1.064 19.354-.299 30.524 2.624s20.859 7.49 27.896 12.665z" fill="#606063"/><path d="M56.734 118.739c-8.721-7.124-11.998-14.041-10.629-19.27s7.614-9.654 18.706-11.593c10.807-1.889 25.078-1.154 40.186 2.8s27.911 10.304 36.406 17.245c8.721 7.124 11.998 14.041 10.63 19.27s-7.614 9.653-18.707 11.593c-10.806 1.889-25.078 1.153-40.186-2.8s-27.91-10.304-36.406-17.245zm35.646 20.147c-30.854-8.075-52.872-26.062-49.178-40.176s31.7-19.01 62.554-10.935 52.872 26.062 49.178 40.176-31.7 19.01-62.554 10.936z" fill="#979797"/><path d="M45.167 124.049l-4.937-19.123 2.905-.75 4.937 19.123-2.905.75z" fill="url(#B)"/><path d="M43.469 106.189l-.128-.443-.202-.817-.142-.54c.022-.012.03-.019.028-.027l-.004-.025-.12-.794-.022-.191c-.072-.663-.096-1.321-.071-1.974.035-.903.166-1.793.395-2.668 3.694-14.114 31.7-19.01 62.555-10.936s52.872 26.062 49.178 40.176a12.4 12.4 0 0 1-.963 2.519 13.7 13.7 0 0 1-1.635 2.476l-.016.019c.011.02.014.025.015.029l-.611.651-12.932 13.655c-6.807 9.031-27.596 11.752-50.146 5.85-22.303-5.837-38.971-18.182-40.797-29.295-.093-.569-.484-1.054-1.037-1.215L10.127 111.91a8.26 8.26 0 0 1-5.762-9.635l.459-2.172c.39-1.845 2.242-2.99 4.066-2.514l34.249 8.931a.27.27 0 0 0 .331-.331zm-3.657-3.636c-.064-1.544.091-3.085.488-4.603 2.325-8.885 11.93-13.965 23.478-15.984 11.834-2.069 26.992-1.215 42.738 2.906s29.38 10.802 38.683 18.402c9.078 7.417 14.963 16.551 12.638 25.436-.557 2.129-1.552 4.064-2.901 5.789a3.08 3.08 0 0 1-.425.566l-13.429 14.181c-4.171 5.406-12.026 8.46-21.098 9.556-9.3 1.124-20.517.28-32.096-2.751-11.453-2.997-21.548-7.685-29.078-13.141-7.08-5.13-12.321-11.262-13.743-17.657L9.285 114.789a11.26 11.26 0 0 1-7.855-13.134l.459-2.173c.744-3.519 4.277-5.704 7.758-4.796l30.165 7.867z" fill="url(#C)"/></g><circle cx="57" cy="29" r="29" fill="#f0b90b"/><path d="M46.185 29l-4.437 4.468L37.28 29l4.468-4.468L46.185 29zM57 18.185l7.642 7.642 4.468-4.468-7.642-7.611L57 9.28 44.921 21.358l4.468 4.468L57 18.185zm15.252 6.347L67.815 29l4.468 4.468L76.72 29l-4.468-4.468zM57 39.815l-7.642-7.642-4.437 4.468L57 48.72l12.109-12.109-4.468-4.437L57 39.815zm0-6.347L61.468 29 57 24.532 52.532 29 57 33.468z" fill="#fffdfa"/><g style="mix-blend-mode:multiply" opacity=".1"><path fill-rule="evenodd" d="M57 55c14.359 0 26-11.641 26-26S71.359 3 57 3 31 14.641 31 29s11.641 26 26 26zm0 3c16.016 0 29-12.984 29-29S73.016 0 57 0 28 12.984 28 29s12.984 29 29 29z" fill="#191326"/></g><g clip-path="url(#E)"><path d="M106.633 115.619c23.814 0 43.119-19.305 43.119-43.119s-19.305-43.119-43.119-43.119S63.514 48.686 63.514 72.5s19.305 43.119 43.119 43.119z" fill="#000"/><g fill="#fff"><path d="M106.633 116c-23.987 0-43.5-19.513-43.5-43.5S82.646 29 106.633 29s43.5 19.513 43.5 43.5-19.513 43.5-43.5 43.5zm0-86.286c-23.606 0-42.786 19.18-42.786 42.786s19.18 42.786 42.786 42.786 42.786-19.18 42.786-42.786-19.18-42.786-42.786-42.786zM93.878 86.921h20.941a9.55 9.55 0 0 0 9.519-9.519 9.55 9.55 0 0 0-9.519-9.519H98.447c-2.998 0-5.616-1.57-7.044-3.95.523-.857 1.19-1.571 1.999-2.189 1.475-1.142 3.236-1.713 5.093-1.713h20.941c2.76 0 4.949-2.237 4.949-4.95a4.98 4.98 0 0 0-4.949-4.95H98.495a9.55 9.55 0 0 0-9.519 9.519 9.55 9.55 0 0 0 9.519 9.519h16.372a8.29 8.29 0 0 1 8.281 8.281c0 1.095-.238 2.142-.619 3.141-1.808-2.475-4.616-3.903-7.71-3.903H98.447a8.29 8.29 0 0 1-8.281-8.281h-1.19a9.55 9.55 0 0 0 9.519 9.519h16.372a8.2 8.2 0 0 1 7.043 3.95c-1.475 2.38-4.093 3.95-7.043 3.95H93.926c-2.76 0-4.95 2.237-4.95 4.95 0 2.76 2.237 4.95 4.95 4.95h20.941a9.55 9.55 0 0 0 9.518-9.519h-1.19a8.29 8.29 0 0 1-8.281 8.281H93.973c-2.094 0-3.76-1.666-3.76-3.76-.095-2.142 1.618-3.808 3.665-3.808zm-3.76-27.318a8.29 8.29 0 0 1 8.281-8.281h20.941c2.094 0 3.76 1.666 3.76 3.76s-1.666 3.76-3.76 3.76H98.4c-2.142 0-4.141.666-5.806 1.999-.714.571-1.333 1.19-1.856 1.951-.381-1.047-.619-2.094-.619-3.189z"/></g></g><g style="mix-blend-mode:multiply" opacity=".2"><path fill-rule="evenodd" d="M106.5 113.163c22.458 0 40.663-18.205 40.663-40.663S128.958 31.837 106.5 31.837 65.837 50.042 65.837 72.5s18.205 40.663 40.663 40.663zm0 2.837c24.024 0 43.5-19.476 43.5-43.5S130.524 29 106.5 29 63 48.476 63 72.5 82.476 116 106.5 116z" fill="#191326"/></g></g><defs><linearGradient id="A" x1="105.757" y1="87.774" x2="92.381" y2="138.886" gradientUnits="userSpaceOnUse"><stop stop-color="#404042"/><stop offset="1" stop-color="#48484b"/></linearGradient><linearGradient id="B" x1="46.567" y1="105.096" x2="41.735" y2="123.129" gradientUnits="userSpaceOnUse"><stop stop-color="#404042"/><stop offset="1" stop-color="#48484b"/></linearGradient><linearGradient id="C" x1="73.495" y1="80.169" x2="89.09" y2="164.62" gradientUnits="userSpaceOnUse"><stop stop-color="#404042"/><stop offset="1" stop-color="#48484b"/></linearGradient><clipPath id="D"><path fill="#fff" d="M0 0h160v160H0z"/></clipPath><clipPath id="E"><path fill="#fff" transform="translate(63 29)" d="M0 0h87v87H0z"/></clipPath></defs></svg>
